svg/video_stabilization.svg

<svg xmlns="http://www.w3.org/2000/svg" viewBox="0 0 24 24"><path d="M4 4h16a2 2 0 0 1 2 2v12a2 2 0 0 1-2 2H4a2 2 0 0 1-2-2V6a2 2 0 0 1 2-2m0 2v12h16V6zm3.24.58 11.59 3.11-2.07 7.73-11.59-3.11z"/></svg>

<?xml version="1.0" encoding="UTF-8"?><!DOCTYPE svg PUBLIC "-//W3C//DTD SVG 1.1//EN" "http://www.w3.org/Graphics/SVG/1.1/DTD/svg11.dtd"><svg xmlns="http://www.w3.org/2000/svg" xmlns:xlink="http://www.w3.org/1999/xlink" version="1.1" id="mdi-video-stabilization" width="24" height="24" viewBox="0 0 24 24"><path d="M4,4H20A2,2 0 0,1 22,6V18A2,2 0 0,1 20,20H4A2,2 0 0,1 2,18V6A2,2 0 0,1 4,4M4,6V18H20V6H4M7.24,6.58L18.83,9.69L16.76,17.42L5.17,14.31L7.24,6.58Z" /></svg>
